source/images/icons/icon-editorial/maison.svg

<?xml version="1.0" encoding="UTF-8"?>
<svg width="80px" height="80px" viewBox="0 0 80 80" version="1.1" xmlns="http://www.w3.org/2000/svg" xmlns:xlink="http://www.w3.org/1999/xlink">
    <!-- Generator: Sketch 55.2 (78181) - https://sketchapp.com -->
    <title>Illustrative Icons/Maison</title>
    <desc>Created with Sketch.</desc>
    <g id="Illustrative-Icons/Maison" stroke="none" stroke-width="1" fill="none" fill-rule="evenodd">
        <path d="M69.1204628,27.85 L61.6204628,14.5166667 C61.3252542,13.9914831 60.7695959,13.6664995 60.1671295,13.6666667 L58.3054628,13.6666667 L57.6537961,8.46 C57.5495888,7.62610406 56.8408446,7 56.0004628,7 L46.0004628,7 C45.160081,7 44.4513367,7.62610406 44.3471294,8.46 L43.6954628,13.6666667 L20.1671294,13.6666667 C19.564663,13.6664995 19.0090046,13.9914831 18.7137961,14.5166667 L11.2137961,27.85 C10.923667,28.3661469 10.9291604,28.9974717 11.2282272,29.5084918 C11.527294,30.0195119 12.0750293,30.3334977 12.6671294,30.3333334 L13.5004627,30.3333334 L13.5004627,68.6666667 C13.5004627,69.5871413 14.2466548,70.3333334 15.1671294,70.3333334 L45.1671294,70.3333334 C46.087604,70.3333334 46.8337961,69.5871413 46.8337961,68.6666667 C46.8337961,67.7461922 46.087604,67 45.1671294,67 L16.8337961,67 L16.8337961,30.3333334 L41.6121294,30.3333334 L41.0137961,35.1266667 C40.9545291,35.6009373 41.1017294,36.0778284 41.4179998,36.4361832 C41.7342702,36.7945381 42.1891701,36.9998652 42.6671294,37 L59.3337961,37 C59.8117555,36.9998652 60.2666553,36.7945381 60.5829257,36.4361832 C60.8991962,36.0778284 61.0463964,35.6009373 60.9871295,35.1266667 L60.3887961,30.3333334 L63.5004628,30.3333334 L63.5004628,67 L56.8337961,67 L56.8337961,52 C56.8337961,51.0795255 56.087604,50.3333334 55.1671294,50.3333334 L45.1671294,50.3333334 C44.2466548,50.3333334 43.5004628,51.0795255 43.5004628,52 C43.5004628,52.9204746 44.2466548,53.6666667 45.1671294,53.6666667 L53.5004628,53.6666667 L53.5004628,68.6666667 C53.5004628,69.5871413 54.2466549,70.3333334 55.1671294,70.3333334 L65.1671295,70.3333334 C66.087604,70.3333334 66.8337961,69.5871413 66.8337961,68.6666667 L66.8337961,30.3333334 L67.6671295,30.3333334 C68.2592295,30.3334977 68.8069649,30.0195119 69.1060317,29.5084918 C69.4050985,28.9974717 69.4105919,28.3661469 69.1204628,27.85 L69.1204628,27.85 Z M15.5171294,27 L21.1421294,17 L43.2787961,17 L42.0287961,27 L15.5171294,27 Z M44.5554628,33.6666667 L47.4721294,10.3333333 L54.5287961,10.3333333 L57.4454628,33.6666667 L44.5554628,33.6666667 Z M58.7221294,17 L59.1921294,17 L64.8171295,27 L59.9721295,27 L58.7221294,17 Z M20.1671294,40.3333334 L20.1671294,50.3333334 L30.1671294,50.3333334 L30.1671294,40.3333334 C30.1671294,37.5719096 27.9285532,35.3333334 25.1671294,35.3333334 C22.4057057,35.3333334 20.1671294,37.5719096 20.1671294,40.3333334 Z M26.8337961,40.3333334 L26.8337961,47 L23.5004627,47 L23.5004627,40.3333334 C23.5004627,39.4128588 24.2466548,38.6666667 25.1671294,38.6666667 C26.087604,38.6666667 26.8337961,39.4128588 26.8337961,40.3333334 Z M45.1671294,60.3333334 C46.087604,60.3333334 46.8337961,59.5871413 46.8337961,58.6666667 C46.8337961,57.7461921 46.087604,57.0000001 45.1671294,57.0000001 C44.2466548,57.0000001 43.5004628,57.7461921 43.5004628,58.6666667 C43.5004628,59.5871413 44.2466548,60.3333334 45.1671294,60.3333334 Z" id="Shape-color" fill="#ADB5BD"></path>
    </g>
</svg>

<svg width="80" height="80">
    <title>
        Illustrative Icons/Maison
    </title>
    <path d="M69.12 27.85l-7.5-13.333a1.667 1.667 0 0 0-1.453-.85h-1.862l-.651-5.207A1.666 1.666 0 0 0 56 7H46c-.84 0-1.549.626-1.653 1.46l-.652 5.207H20.167c-.602 0-1.158.324-1.453.85l-7.5 13.333a1.667 1.667 0 0 0 1.453 2.483h.833v38.334c0 .92.747 1.666 1.667 1.666h30a1.667 1.667 0 0 0 0-3.333H16.834V30.333h24.778l-.598 4.794A1.667 1.667 0 0 0 42.667 37h16.667a1.667 1.667 0 0 0 1.653-1.873l-.598-4.794H63.5V67h-6.666V52c0-.92-.746-1.667-1.667-1.667h-10a1.667 1.667 0 1 0 0 3.334H53.5v15c0 .92.747 1.666 1.667 1.666h10c.92 0 1.667-.746 1.667-1.666V30.333h.833a1.667 1.667 0 0 0 1.453-2.483zM15.517 27l5.625-10H43.28l-1.25 10H15.517zm29.038 6.667l2.917-23.334h7.057l2.916 23.334h-12.89zM58.722 17h.47l5.625 10h-4.845l-1.25-10zM20.167 40.333v10h10v-10a5 5 0 1 0-10 0zm6.667 0V47H23.5v-6.667a1.667 1.667 0 0 1 3.334 0zm18.333 20a1.667 1.667 0 1 0 0-3.333 1.667 1.667 0 0 0 0 3.333z" fill="#ADB5BD" fill-rule="evenodd"/>
</svg>
